src/icons/logos/tail-S7.svg

<svg>
    <defs>
        <path d="M659.5555,1 C670.3635,1 679.1255,9.764 679.1255,20.575 C679.1255,21.731 679.025,22.864 678.833,23.965 L521.3915,631.934 C518.5705,638.453 508.106,652.3145 487.193,652.75 L486.556,652.759 L2,652.838 C338.535,231.2945 507.627,19.5075 509.275,17.477 C516.5705,8.4935 528.951,1.148 541.5525,1 L659.5555,1 Z" id="path-1"></path>
        <polygon id="path-3" points="0 0 370.893274 0 370.893274 288.251379 0 288.251379"></polygon>
    </defs>
    <g id="S7" stroke="none" stroke-width="1" fill="none" fill-rule="evenodd">
        <g id="Mask-Raw" transform="translate(88.000000, 88.000000)">
            <path d="M659.5555,0.25 L541.5525,0.25 C529.417951,0.392464104 516.653519,7.20156168 508.692801,17.0041958 L504.143997,22.693252 L408.78043,142.119216 L0.441350848,653.588254 L486.556122,653.509 L487.203595,653.499925 C496.850749,653.299046 504.993321,650.296167 511.536706,645.215715 C516.398031,641.441257 520.090369,636.67697 521.967184,632.487618 L522.102948,632.178405 L679.55905,24.1530201 L679.57185,24.0938457 C679.773302,22.9386432 679.8755,21.7624542 679.8755,20.575 C679.8755,9.34991032 670.777837,0.25 659.5555,0.25 Z M541.561308,1.74994828 L659.5555,1.74994828 C669.949327,1.74994828 678.3755,10.1782545 678.3755,20.575 L678.3755,20.9873085 C678.353341,21.8108328 678.282538,22.6275948 678.159826,23.4338938 L678.099,23.806 L520.6795,631.689 L520.703183,631.636141 C518.963128,635.657204 515.375715,640.335962 510.616794,644.03091 C504.32299,648.917581 496.490164,651.80623 487.177385,652.000163 L486.545405,652.009075 L3.558,652.0875 L468.817257,69.3318426 L505.306926,23.640727 L509.555328,18.3259168 L509.857335,17.9496367 C517.549486,8.47771051 529.904809,1.88684959 541.561308,1.74994828 Z" id="BG" fill="#7CAF4D" fill-rule="nonzero"></path>
            <mask id="mask-2" fill="white">
                <use xlink:href="#path-1"></use>
            </mask>
            <use id="FG" fill="#7CAF4D" xlink:href="#path-1"></use>
            <g id="Group-4" mask="url(#mask-2)">
                <g transform="translate(234.000000, 241.000000)" id="Group-3">
                    <mask id="mask-4" fill="white">
                        <use xlink:href="#path-3"></use>
                    </mask>
                    <g id="Clip-2"></g>
                    <path d="M364.898534,-0.00018525641 L236.259849,-0.00018525641 L217.978824,45.6469942 L260.617854,45.6469942 C289.309139,45.6469942 294.827764,45.0300904 302.032584,45.0300904 C291.631599,68.7929301 228.945584,228.324635 228.945584,228.324635 L281.998584,228.324635 C281.998584,228.324635 361.362904,29.7353212 369.773474,8.91435321 C372.103354,4.26812244 370.945834,-0.00018525641 364.898534,-0.00018525641 L364.898534,-0.00018525641 Z M171.438729,-0.00018525641 C130.025854,-0.00018525641 103.159889,2.28587885 83.712069,9.49605833 C51.030679,22.2102058 28.460894,48.8574878 28.460894,83.8765071 C28.460894,113.043276 42.059899,134.166212 81.415579,158.460738 C123.407214,183.883475 131.784394,192.284853 131.784394,207.603706 C131.784394,224.369411 115.336109,243.452674 73.014284,243.452674 C58.242919,243.452674 35.994049,241.411148 21.777329,237.93759 L14.993594,236.229526 C11.209394,246.361199 2.618889,270.327821 -0.000371,279.023757 L6.716584,280.996738 C19.504954,285.070526 49.854609,288.251379 71.598919,288.251379 C143.934644,288.251379 187.093074,244.606821 187.093074,198.904065 C187.093074,170.821046 174.328819,149.479507 131.179664,122.589539 C109.535524,109.293687 98.505694,100.671853 91.807289,93.9970647 C86.377704,87.0295712 85.776684,81.8442442 85.776684,76.3662122 C85.776684,71.1364237 86.941624,65.1100327 90.393779,60.6953724 C94.127894,55.2377186 100.976554,51.7604558 110.245989,48.890834 C119.773269,45.7340647 137.425449,45.6506994 164.918404,45.6506994 L190.517404,45.6506994 L208.796574,-0.00018525641 L171.438729,-0.00018525641 L171.438729,-0.00018525641 Z" id="Fill-1" fill="#FFFFFF" mask="url(#mask-4)"></path>
                </g>
            </g>
        </g>
    </g>
</svg>

<svg width="856" height="830" xmlns="http://www.w3.org/2000/svg" xmlns:xlink="http://www.w3.org/1999/xlink"><title>S7</title><defs><path d="M659.556 1c10.808 0 19.57 8.764 19.57 19.575 0 1.156-.101 2.289-.293 3.39L521.391 631.934c-2.82 6.519-13.285 20.38-34.198 20.816l-.637.009L2 652.838C338.535 231.295 507.627 19.508 509.275 17.477 516.571 8.493 528.951 1.148 541.553 1h118.003z" id="a"/><path id="c" d="M0 0h370.893v288.251H0z"/></defs><g transform="translate(88 88)" fill="none" fill-rule="evenodd"><path d="M659.556.25H541.552c-12.134.142-24.898 6.952-32.86 16.754l-4.548 5.69-95.364 119.425L.441 653.59l486.115-.08.648-.01c9.647-.2 17.79-3.203 24.333-8.283 4.861-3.775 8.553-8.539 10.43-12.728l.136-.31L679.559 24.153l.013-.06c.201-1.154.303-2.33.303-3.518 0-11.225-9.097-20.325-20.32-20.325zM541.56 1.75h117.995c10.393 0 18.82 8.428 18.82 18.825v.412c-.023.824-.093 1.64-.216 2.447l-.061.372-157.42 607.883.024-.053c-1.74 4.021-5.327 8.7-10.086 12.395-6.294 4.887-14.127 7.775-23.44 7.97l-.632.008-482.987.078 465.26-582.755 36.489-45.691 4.248-5.315.302-.376c7.692-9.472 20.048-16.063 31.704-16.2z" fill="#7CAF4D" fill-rule="nonzero"/><mask id="b" fill="#fff"><use xlink:href="#a"/></mask><use fill="#7CAF4D" xlink:href="#a"/><g mask="url(#b)"><g transform="translate(234 241)"><mask id="d" fill="#fff"><use xlink:href="#c"/></mask><path d="M364.899 0h-128.64l-18.28 45.647h42.639c28.691 0 34.21-.617 41.415-.617-10.401 23.763-73.087 183.295-73.087 183.295h53.053s79.364-198.59 87.774-219.41C372.103 4.267 370.946 0 364.9 0zm-193.46 0c-41.413 0-68.28 2.286-87.727 9.496-32.681 12.714-55.251 39.361-55.251 74.38 0 29.167 13.599 50.29 52.955 74.585 41.991 25.422 50.368 33.824 50.368 49.143 0 16.765-16.448 35.849-58.77 35.849-14.771 0-37.02-2.042-51.237-5.515l-6.783-1.708C11.209 246.36 2.619 270.328 0 279.024l6.717 1.973c12.788 4.074 43.138 7.254 64.882 7.254 72.336 0 115.494-43.644 115.494-89.347 0-28.083-12.764-49.424-55.913-76.314-21.644-13.296-32.674-21.918-39.373-28.593-5.43-6.967-6.03-12.153-6.03-17.63 0-5.23 1.165-11.257 4.617-15.672 3.734-5.457 10.583-8.935 19.852-11.804 9.527-3.157 27.18-3.24 54.672-3.24h25.6L208.796 0h-37.358z" fill="#FFF" mask="url(#d)"/></g></g></g></svg>
